public/images/running.svg

<svg xmlns:xlink="http://www.w3.org/1999/xlink" xmlns="http://www.w3.org/2000/svg" width="18" height="18" viewBox="0 0 18 18" fill="none">
<path d="M2.55785 0.14209C1.35636 0.14209 0.378906 1.11954 0.378906 2.32104C0.378906 3.52254 1.35636 4.49999 2.55785 4.49999C3.75935 4.49999 4.7368 3.52254 4.7368 2.32104C4.7368 1.11954 3.75935 0.14209 2.55785 0.14209ZM2.55785 3.93158C1.66981 3.93158 0.947312 3.20912 0.947312 2.32104C0.947312 1.43296 1.66977 0.710496 2.55785 0.710496C3.4459 0.710496 4.16836 1.43296 4.16836 2.32104C4.16836 3.20912 3.4459 3.93158 2.55785 3.93158Z" fill="black"/>
<path d="M10.5157 17.2893H9.75784C9.60086 17.2893 9.47363 17.4166 9.47363 17.5735C9.47363 17.7305 9.6009 17.8577 9.75784 17.8577H10.5157C10.6727 17.8577 10.7999 17.7304 10.7999 17.5735C10.7999 17.4166 10.6727 17.2893 10.5157 17.2893Z" fill="black"/>
<path d="M12.7892 17.2893H12.0313C11.8743 17.2893 11.7471 17.4166 11.7471 17.5735C11.7471 17.7305 11.8743 17.8577 12.0313 17.8577H12.7892C12.9461 17.8577 13.0734 17.7304 13.0734 17.5735C13.0734 17.4166 12.9461 17.2893 12.7892 17.2893Z" fill="black"/>
<path d="M15.4425 0.994873H14.6846C14.5276 0.994873 14.4004 1.12214 14.4004 1.27908C14.4004 1.43601 14.5277 1.56328 14.6846 1.56328H15.4425C15.5995 1.56328 15.7267 1.43601 15.7267 1.27908C15.7267 1.12214 15.5995 0.994873 15.4425 0.994873Z" fill="black"/>
<path d="M13.5472 0.994873H11.2735C11.1165 0.994873 10.9893 1.12214 10.9893 1.27908C10.9893 1.43601 11.1165 1.56328 11.2735 1.56328H13.5472C13.7041 1.56328 13.8314 1.43601 13.8314 1.27908C13.8314 1.12214 13.7041 0.994873 13.5472 0.994873Z" fill="black"/>
<path d="M17.7159 0.994873H16.958C16.8011 0.994873 16.6738 1.12214 16.6738 1.27908C16.6738 1.43601 16.8011 1.56328 16.958 1.56328H17.7159C17.8729 1.56328 18.0001 1.43601 18.0001 1.27908C18.0001 1.12214 17.8729 0.994873 17.7159 0.994873Z" fill="black"/>
<path d="M17.3068 12.3862C16.9338 11.8889 16.2505 11.7551 15.7174 12.0749L14.7283 12.6684L11.9167 9.85689C11.9943 9.6603 12.0368 9.44918 12.0403 9.23083C12.0482 8.74462 11.8631 8.28744 11.5193 7.94362L8.5493 4.97365H10.9895V5.6368C10.9895 6.31588 11.542 6.8684 12.2211 6.8684C12.9002 6.8684 13.4527 6.31588 13.4527 5.6368V4.18316C13.4527 3.26084 12.7023 2.5105 11.78 2.5105H7.29032C6.36198 2.5105 5.48919 2.87201 4.83272 3.52845L2.37361 5.98756C2.37407 5.98763 2.37449 5.98777 2.37495 5.98791C2.31311 6.04001 2.2737 6.11799 2.2737 6.20524V9.33155H1.23159C0.552516 9.33155 0 9.88403 0 10.5631C0 11.2422 0.552516 11.7947 1.23159 11.7947H3.06418C3.98651 11.7947 4.73685 11.0444 4.73685 10.122V8.78614L7.0823 11.1316L4.65834 13.5555C4.34239 13.8714 4.16841 14.2915 4.16841 14.7383V16.6263C4.16841 16.8704 4.24005 17.0978 4.36303 17.2894H3.69471C3.53774 17.2894 3.41051 17.4167 3.41051 17.5737C3.41051 17.7306 3.53777 17.8579 3.69471 17.8579H8.24207C8.39904 17.8579 8.52627 17.7306 8.52627 17.5737C8.52627 17.4167 8.399 17.2894 8.24207 17.2894H6.4369C6.55988 17.0978 6.63152 16.8703 6.63152 16.6263V15.0442L10.0628 11.8274L13.3767 14.8401C13.6924 15.127 14.0953 15.2753 14.502 15.2753C14.7799 15.2753 15.0595 15.2061 15.3142 15.0645L16.9267 14.1688C17.2322 13.999 17.4491 13.7057 17.522 13.364C17.5949 13.0222 17.5165 12.6658 17.3068 12.3862ZM4.16841 10.122C4.16841 10.7309 3.67305 11.2263 3.06415 11.2263H1.23159C0.865934 11.2263 0.568441 10.9287 0.568441 10.5631C0.568441 10.1974 0.865969 9.89996 1.23159 9.89996H2.5579C2.71487 9.89996 2.8421 9.77269 2.8421 9.61575V6.89135L4.16841 8.21766V10.122ZM16.9662 13.2454C16.9276 13.4265 16.8125 13.5819 16.6507 13.6719L15.0383 14.5677C14.6239 14.7978 14.1099 14.7383 13.7592 14.4194L10.4789 11.4373L10.6151 11.3097C10.719 11.2122 10.7337 11.0524 10.6493 10.9377C10.6481 10.9361 10.647 10.9346 10.6459 10.933C10.546 10.7972 10.3498 10.7792 10.2268 10.8945L6.15301 14.7137C6.09567 14.7674 6.06315 14.8424 6.06315 14.921V16.6087C6.06315 16.9796 5.75965 17.2955 5.38875 17.2893C5.02826 17.2833 4.73685 16.9882 4.73685 16.6263V14.7382C4.73685 14.4454 4.85318 14.1645 5.06029 13.9574L7.68519 11.3325C7.79618 11.2215 7.79618 11.0415 7.68519 10.9306L4.65367 7.89907C4.65363 7.89904 4.6536 7.899 4.65356 7.899L2.9598 6.20521L5.23466 3.93035C5.77986 3.38515 6.5193 3.0789 7.29028 3.0789H11.7799C12.3898 3.0789 12.8842 3.57327 12.8842 4.18316V5.61923C12.8842 5.99012 12.5807 6.30604 12.2098 6.29985C11.8493 6.29387 11.5579 5.9987 11.5579 5.6368V4.68945C11.5579 4.53247 11.4306 4.40524 11.2737 4.40524H7.87127C7.77829 4.40524 7.6879 4.44627 7.63351 4.52172C7.54935 4.63847 7.56531 4.79354 7.6622 4.89044L11.101 8.32921C11.3349 8.5631 11.4743 8.87912 11.4722 9.20987C11.4699 9.54533 11.3336 9.85689 11.0893 10.0859L11.0451 10.1274C10.941 10.225 10.9266 10.3849 11.0113 10.4998C11.0124 10.5014 11.0136 10.5029 11.0147 10.5045C11.1145 10.6401 11.3105 10.6577 11.4334 10.5426L11.4781 10.5007C11.5265 10.4554 11.5717 10.4076 11.6142 10.3581L14.4834 13.2273C14.5756 13.3196 14.7188 13.3372 14.8306 13.2701L16.01 12.5624C16.2925 12.393 16.6545 12.4638 16.8522 12.7274C16.9632 12.8754 17.0048 13.0642 16.9662 13.2454Z" fill="black"/>
</svg>

<svg xmlns="http://www.w3.org/2000/svg" width="18" height="18" fill="none"><path fill="#000" d="M2.558.142a2.18 2.18 0 0 0-2.18 2.179c0 1.202.978 2.179 2.18 2.179a2.18 2.18 0 0 0 2.179-2.179A2.18 2.18 0 0 0 2.557.142m0 3.79c-.888 0-1.61-.723-1.61-1.611S1.67.711 2.557.711s1.61.722 1.61 1.61-.722 1.61-1.61 1.61M10.516 17.29h-.758a.284.284 0 0 0 0 .568h.758a.284.284 0 0 0 0-.569M12.79 17.29h-.759a.284.284 0 0 0 0 .568h.758a.284.284 0 0 0 0-.569M15.443.995h-.758a.284.284 0 1 0 0 .568h.758a.284.284 0 1 0 0-.568M13.547.995h-2.274a.284.284 0 1 0 0 .568h2.274a.284.284 0 0 0 0-.568M17.716.995h-.758a.284.284 0 0 0 0 .568h.758a.284.284 0 1 0 0-.568"/><path fill="#000" d="M17.307 12.386a1.206 1.206 0 0 0-1.59-.311l-.989.593-2.811-2.811a1.78 1.78 0 0 0-.398-1.913l-2.97-2.97h2.44v.663a1.233 1.233 0 0 0 2.463 0V4.183c0-.922-.75-1.672-1.672-1.672H7.29c-.928 0-1.8.361-2.457 1.017l-2.46 2.46h.002a.28.28 0 0 0-.101.217v3.127H1.232C.552 9.332 0 9.884 0 10.563c0 .68.553 1.232 1.232 1.232h1.832c.923 0 1.673-.75 1.673-1.673V8.786l2.345 2.346-2.424 2.424c-.316.315-.49.736-.49 1.182v1.888c0 .244.072.472.195.663h-.668a.284.284 0 0 0 0 .569h4.547a.284.284 0 0 0 0-.569H6.437c.123-.191.195-.419.195-.663v-1.582l3.43-3.217 3.315 3.013a1.67 1.67 0 0 0 1.937.225l1.613-.896a1.21 1.21 0 0 0 .38-1.783M4.168 10.122c0 .609-.495 1.104-1.104 1.104H1.232a.664.664 0 0 1 0-1.326h1.326a.284.284 0 0 0 .284-.284V6.89l1.326 1.327zm12.798 3.123a.64.64 0 0 1-.315.427l-1.613.896c-.414.23-.928.17-1.279-.149l-3.28-2.982.136-.127a.28.28 0 0 0 .03-.377.28.28 0 0 0-.418-.038l-4.074 3.819a.28.28 0 0 0-.09.207v1.688c0 .37-.303.686-.674.68a.664.664 0 0 1-.652-.663v-1.888c0-.293.116-.573.323-.78l2.625-2.626a.284.284 0 0 0 0-.401L4.654 7.899 2.96 6.205 5.235 3.93A2.9 2.9 0 0 1 7.29 3.08h4.49c.61 0 1.104.494 1.104 1.104V5.62c0 .371-.303.687-.674.68a.664.664 0 0 1-.652-.662v-.948a.284.284 0 0 0-.284-.284H7.87a.3.3 0 0 0-.237.117.285.285 0 0 0 .028.368l3.439 3.44c.234.233.373.55.371.88a1.2 1.2 0 0 1-.383.876l-.044.041a.28.28 0 0 0-.034.373l.004.005c.1.135.295.153.418.038l.045-.042q.073-.069.136-.143l2.87 2.87c.092.092.235.11.347.042l1.179-.708a.64.64 0 0 1 .956.683"/></svg>
